wp-content/themes/lnob/assets/images/svgs/social/linkedin.svg

<svg fill="none" height="22" viewBox="0 0 22 22" width="22" xmlns="http://www.w3.org/2000/svg"><path d="m4.565 2.79171c0 1.26596-1.0175 2.29171-2.27329 2.29171-1.25592 0-2.2734226-1.02575-2.2734226-2.29171 0-1.265 1.0175026-2.29171 2.2734226-2.29171 1.25579 0 2.27329 1.02671 2.27329 2.29171zm.01829 4.125h-4.58329v14.66669h4.58329zm7.31691 0h-4.55399v14.66669h4.55479v-7.6992c0-4.28074 5.5267-4.63095 5.5267 0v7.6992h4.5723v-9.2867c0-7.22345-8.1785-6.96028-10.0998-3.40453z" fill="#fff"/></svg>

<svg width="22" height="22" viewBox="0 0 22 22" fill="none" xmlns="http://www.w3.org/2000/svg">
<path d="M4.565 2.79171C4.565 4.05767 3.5475 5.08342 2.29171 5.08342C1.03579 5.08342 0.0182874 4.05767 0.0182874 2.79171C0.0182874 1.52671 1.03579 0.5 2.29171 0.5C3.5475 0.5 4.565 1.52671 4.565 2.79171ZM4.58329 6.91671H0V21.5834H4.58329V6.91671ZM11.9002 6.91671H7.34621V21.5834H11.901V13.8842C11.901 9.60346 17.4277 9.25325 17.4277 13.8842V21.5834H22V12.2967C22 5.07325 13.8215 5.33642 11.9002 8.89217V6.91671Z" fill="white"/>
</svg>
